X: 10
T: The NAVVIE
%R: harnpipe
B: Jean White "100 Popular Hornpipes, Reels, Jigs and Country Dances", Boston 1880 p.5
F: http://www.loc.gov/resource/sm1880.09124.0#seq-1
Z: 2014 John Chambers <jc:trillian.mit.edu>
M: C|
L: 1/8
K: G
% - - - - - - - - - - - - - - - - - - - - - - - - - - - - -
B>c |\
d>gf>e d>cB>A | G>BD>G B2A>G |\
F>AD>F A2G>F | G>DE>F G>AB>c |
d>gf>e d>cB>A | G>BD>G B2A>G |\
F>gf>e d>cB>A | G2B2 G2 :|
|: A>G |\
F>AD>F A2G>F | G>BD>G B2A>G |\
F>AD>F A2G>F | G>DE>F G>AB>c |
d>gf>e d>cB>A | G>BD>G B2A>G |\
F>gf>e d>cB>A | G2B2 G2 H|
% - - - - - - - - - - - - - - - - - - - - - - - - - - - - -

%%sep 1 1 500
%%sep 1 1 500
